X:21057 
T:FLOWERS OF LIMERICK (reel), The
B:DMI.0768
Z:Nordberg/Black
N:1:DMI shows no F naturals, so the modal version played today 
is evidently an innovation from after the Chief's day. (Current 
version only has two parts, not the four in the source.) 
N:2:In the following file, MM 1 - 32 are the Chief's G-major 
setting and mm 33 - 48 are the G modal version.
N:2:This tune has many other names, e.g. "Yellow Tinker," 
"Paddy on the Railway," etc etc
R:reel
%Q:1/4=180
M:C|
L:1/8
K:G
GF|DGGF G2GA|BGcA BGAF|DFFE F2FG|AGAc BGFE|
DGGF G2GA|BAGA Bcde|fefd cAFA|BGAF G2||
GA|Gggf g2ga|bgga bgaf|d^cde fefg|abag fdcA|
dggf g3d|BAGA Bcde|fefd cAFA|BGAF G2||
GF|DGGA BAGB|dcBd cBAG|FGAB cAFA|cBcA BGAF|
GFGA BABd|cBAB cdeg|fefd cAFA|BGAF G2||
df|gddf gbag|fede fgaf|eccd efge|dcBA GcBA|
G2GA BcBd|cBAB cdeg|fefd cAFA|BGAF HG4|]
%%vskip
P:as G modal in two parts (with repeats)
K:C
GE|"33"DGGF G2GA|BGcA BGAF|DFFE F2FG|AGAc BGFE|
"37"DGGF G2GA|BAGA Bcde|fefd cAFA|BGAF G2:|
GA|"41"Gggf g2ga|bgga bgaf|d^cde fefg|abag fdcA|
"45"dggf g3d|BAGA Bcde|fefd cAFA|BGAF G2:|

%%%

